X: 140
T: No_4_Preparatory_Song.krn
N: Derived from No_4_Preparatory_Song.krn
%%abc-version 2.0
%%abcx-abcm2ps-target-version 5.9.1 (29 Sep 2008)
%%abc-creator hum2abc beta
%%abcx-conversion-date 2019/03/15 08:29:13
%%humdrum-veritas 1116788055
%%humdrum-veritas-data 4000254704
%%linebreak <none>
%%barnumbers 0
L: 1/4
M: 2/4
%%staves {1 2}
V: 1 clef=bass
V: 2 clef=bass
K: Gb
[V:1] D [I:setbarnb 1]| 
[V:2] z | 
[V:1] (3D B, G, | 
[V:2] G,,/G,,/ G,,/G,,/ | 
[V:1] G,3/A,/ | 
[V:2] G,,/G,,/ G,,/G,,/ | 
[V:1] (3A, A, A, | 
[V:2] z2 | 
[V:1] A,2- | 
[V:2] z2 | 
[V:1] A,B, | 
[V:2] z2 | 
[V:1] B,/B,/ A,/A,/ | 
[V:2] z2 | 
[V:1] G,G, | 
[V:2] z2 | 
[V:1] E,3/G,/ | 
[V:2] z2 | 
[V:1] (3G, A, A, | 
[V:2] z2 | 
[V:1] G,2- | 
[V:2] z2 | 
[V:1] G,A, | 
[V:2] z2 | 
[V:1] G,/G,/ E,/E,/ | 
[V:2] z2 | 
[V:1] (3:2:2D, D, B,,/(3:2:1D,// | 
[V:2] z2 | 
[V:1] (3D, B,,- B,, | 
[V:2] z2 | 
[V:1] G,,2 |]  
[V:2] z2 |]  



